src/img/file.svg

<svg width="55" height="55" viewBox="0 0 55 55" fill="none" xmlns="http://www.w3.org/2000/svg">
<path d="M23.9933 29.1224V27.8367C23.9933 27.4751 24.2746 27.1939 24.6362 27.1939H38.779C39.1406 27.1939 39.4219 27.4751 39.4219 27.8367V29.1224C39.4219 29.484 39.1406 29.7653 38.779 29.7653H24.6362C24.2746 29.7653 23.9933 29.484 23.9933 29.1224Z" fill="white"/>
<path d="M24.6362 32.3367H38.779C39.1406 32.3367 39.4219 32.618 39.4219 32.9796V34.2653C39.4219 34.6269 39.1406 34.9081 38.779 34.9081H24.6362C24.2746 34.9081 23.9933 34.6269 23.9933 34.2653V32.9796C23.9933 32.618 24.2746 32.3367 24.6362 32.3367Z" fill="white"/>
<path d="M24.6362 37.4796H38.779C39.1406 37.4796 39.4219 37.7608 39.4219 38.1224V39.4081C39.4219 39.7698 39.1406 40.051 38.779 40.051H24.6362C24.2746 40.051 23.9933 39.7698 23.9933 39.4081V38.1224C23.9933 37.7608 24.2746 37.4796 24.6362 37.4796Z" fill="white"/>
<path fill-rule="evenodd" clip-rule="evenodd" d="M16.279 21.0648C12.1838 21.0648 8.86401 17.745 8.86401 13.6498C8.86401 9.55461 12.1838 6.2348 16.279 6.2348C19.723 6.2348 22.6186 8.58277 23.4524 11.7653H36.2076C37.2723 11.7653 38.7589 12.3881 39.5022 13.1314L45.7701 19.3992C46.5134 20.1425 47.1362 21.6291 47.1362 22.6939V45.8367C47.1362 46.9015 46.2723 47.7653 45.2076 47.7653H18.2076C17.1429 47.7653 16.279 46.9015 16.279 45.8367L16.279 21.0648ZM18.8504 20.6068C21.4729 19.6371 23.3971 17.227 23.6626 14.3367H34.279V22.6939C34.279 23.7586 35.1429 24.6224 36.2076 24.6224H44.5647V45.1939H18.8504V20.6068ZM37.6741 14.9394C37.5335 14.7988 37.192 14.618 36.8504 14.4974V22.051H44.404C44.2835 21.7095 44.1027 21.368 43.9621 21.2273L37.6741 14.9394ZM17.279 14.6498H21.279V12.6498H17.279V8.64984H15.279V12.6498H11.279V14.6498H15.279V18.6498H17.279V14.6498Z" fill="white"/>
</svg>

<svg xmlns="http://www.w3.org/2000/svg" width="55" height="55" fill="none" viewBox="0 0 55 55"><path fill="#fff" d="M23.993 29.122v-1.285c0-.362.282-.643.643-.643H38.78c.362 0 .643.281.643.643v1.285a.635.635 0 0 1-.643.643H24.636a.635.635 0 0 1-.643-.643M24.636 32.337H38.78c.362 0 .643.281.643.643v1.285a.635.635 0 0 1-.643.643H24.636a.635.635 0 0 1-.643-.643V32.98c0-.362.282-.643.643-.643M24.636 37.48H38.78c.362 0 .643.28.643.642v1.286a.635.635 0 0 1-.643.643H24.636a.635.635 0 0 1-.643-.643v-1.286c0-.361.282-.642.643-.642"/><path fill="#fff" fill-rule="evenodd" d="M16.279 21.065a7.415 7.415 0 1 1 7.173-9.3h12.756c1.064 0 2.55.623 3.294 1.366L45.77 19.4c.743.743 1.366 2.23 1.366 3.295v23.143a1.93 1.93 0 0 1-1.928 1.928h-27a1.93 1.93 0 0 1-1.929-1.928zm2.571-.458a7.42 7.42 0 0 0 4.813-6.27h10.616v8.357a1.93 1.93 0 0 0 1.929 1.928h8.357v20.572H18.85zm18.824-5.668c-.14-.14-.482-.321-.824-.442v7.554h7.554c-.12-.341-.301-.683-.442-.824zm-20.395-.29h4v-2h-4v-4h-2v4h-4v2h4v4h2z" clip-rule="evenodd"/></svg>
